X:21
T:Thomas the Rhymer
Z:Jack Campin, http://www.campin.me.uk/
F:Jack Campin's Nine-Note Tunebook
% last edit 03-02-2013
S:Blaikie MS (NLS MS.1578) p21
N:Blaikie #64
M:3/4
L:1/8
Q:1/4=100
K:GMin
D|GA B2 A2 |GG D2 B2| cc    c2 B2|cc d3
G|Bc d2 d2 |cB A3  F| G/A/B A2 GF|DF G3|]

